public/images/partner2.svg

<svg width="157" height="157" viewBox="0 0 157 157" fill="none" xmlns="http://www.w3.org/2000/svg">
<circle cx="78.5" cy="78.5" r="78.5" fill="url(#paint0_linear_110_1399)"/>
<g clip-path="url(#clip0_110_1399)">
<path d="M37 112.25C37 117.073 40.927 121 45.75 121H52.75C55.6445 121 58 118.645 58 115.75V103.5H45.75C43.4302 103.503 41.2062 104.426 39.5659 106.066C37.9255 107.706 37.0028 109.93 37 112.25ZM37 59.75V103.703C38.1366 102.532 39.4966 101.601 40.9996 100.964C42.5026 100.328 44.118 100 45.75 100H100V51H45.75C43.4302 51.0028 41.2062 51.9255 39.5659 53.5659C37.9255 55.2062 37.0028 57.4302 37 59.75ZM56.25 61.5H87.75C88.2141 61.5 88.6592 61.6844 88.9874 62.0126C89.3156 62.3408 89.5 62.7859 89.5 63.25C89.5 63.7141 89.3156 64.1592 88.9874 64.4874C88.6592 64.8156 88.2141 65 87.75 65H56.25C55.7859 65 55.3408 64.8156 55.0126 64.4874C54.6844 64.1592 54.5 63.7141 54.5 63.25C54.5 62.7859 54.6844 62.3408 55.0126 62.0126C55.3408 61.6844 55.7859 61.5 56.25 61.5ZM56.25 73.75H87.75C88.2141 73.75 88.6592 73.9344 88.9874 74.2626C89.3156 74.5908 89.5 75.0359 89.5 75.5C89.5 75.9641 89.3156 76.4092 88.9874 76.7374C88.6592 77.0656 88.2141 77.25 87.75 77.25H56.25C55.7859 77.25 55.3408 77.0656 55.0126 76.7374C54.6844 76.4092 54.5 75.9641 54.5 75.5C54.5 75.0359 54.6844 74.5908 55.0126 74.2626C55.3408 73.9344 55.7859 73.75 56.25 73.75ZM49.25 86H87.75C88.2141 86 88.6592 86.1844 88.9874 86.5126C89.3156 86.8408 89.5 87.2859 89.5 87.75C89.5 88.2141 89.3156 88.6592 88.9874 88.9874C88.6592 89.3156 88.2141 89.5 87.75 89.5H49.25C48.7859 89.5 48.3408 89.3156 48.0126 88.9874C47.6844 88.6592 47.5 88.2141 47.5 87.75C47.5 87.2859 47.6844 86.8408 48.0126 86.5126C48.3408 86.1844 48.7859 86 49.25 86ZM112.25 37H108.75C105.855 37 103.5 39.3555 103.5 42.25V100H112.25C117.073 100 121 96.073 121 91.25V45.75C121 40.927 117.073 37 112.25 37Z" fill="white"/>
</g>
<defs>
<linearGradient id="paint0_linear_110_1399" x1="105.297" y1="0.395459" x2="5.33339" y2="182.349" gradientUnits="userSpaceOnUse">
<stop stop-color="#00C0FF"/>
<stop offset="0.606474" stop-color="#0165FC"/>
</linearGradient>
<clipPath id="clip0_110_1399">
<rect width="84" height="84" fill="white" transform="translate(37 37)"/>
</clipPath>
</defs>
</svg>

<svg xmlns="http://www.w3.org/2000/svg" width="157" height="157" fill="none"><circle cx="78.5" cy="78.5" r="78.5" fill="url(#a)"/><g clip-path="url(#b)"><path fill="#fff" d="M37 112.25c0 4.823 3.927 8.75 8.75 8.75h7a5.256 5.256 0 0 0 5.25-5.25V103.5H45.75a8.763 8.763 0 0 0-8.75 8.75m0-52.5v43.953A12.19 12.19 0 0 1 45.75 100H100V51H45.75A8.76 8.76 0 0 0 37 59.75m19.25 1.75h31.5a1.75 1.75 0 0 1 0 3.5h-31.5a1.75 1.75 0 0 1 0-3.5m0 12.25h31.5a1.75 1.75 0 0 1 0 3.5h-31.5a1.75 1.75 0 0 1 0-3.5m-7 12.25h38.5a1.75 1.75 0 0 1 0 3.5h-38.5a1.75 1.75 0 0 1 0-3.5m63-49h-3.5a5.256 5.256 0 0 0-5.25 5.25V100h8.75c4.823 0 8.75-3.927 8.75-8.75v-45.5c0-4.823-3.927-8.75-8.75-8.75"/></g><defs><linearGradient id="a" x1="105.297" x2="5.333" y1=".395" y2="182.349" gradientUnits="userSpaceOnUse"><stop stop-color="#00C0FF"/><stop offset=".606" stop-color="#0165FC"/></linearGradient><clipPath id="b"><path fill="#fff" d="M37 37h84v84H37z"/></clipPath></defs></svg>
